X:9179
T:Lady on the Island, The
R:reel
I:speed 350
E:7
M:C|
K:G
A|BAFB AFEF|D2FA BAdA|BAFB ~A3B |defd e3A|\
BAFB AFEF|D2FA BAdA|BAFB ~A3B|defd e3||*
A|d3 f efge|afdf eB~B2|d2fd efge|afdf ~e3A|\
d2fd efge|afdf eB~B2|defg ~a3 b|afdf e3||**


